X: 8394
T: Cow That Ate The Blanket, The
R: jig
M: 6/8
K: Gmajor
A|B2G AGE|GAG GBd|e/f/ge dBG|ABA ABc|
B2G AGE|GAG GBd|ege dBG|1 AGF G2:|2 AGF GBd||
|:g3 efg|fag fed|g3 edB|BAG ABc|
B2G AGE|GAG GBd|ege dBG|1 AGF GBd:|2 AGF G2||

